X:394
T:
R:polska
S:Ur von Baumgartens samling i Visby.
O:Gotland, Visby
M:3/4
L:1/16
K:G
GFGB AFAc BGBd|eceg fdfa a2g2|gece edBd dcAF|GFGB AGFE E2D2|GFGB AFAc BGBd|
eceg fdfa a2g2|gece edBd dcBc|BAGF G4 G,4::BGFG BGFG dcBc|AFEF DFAc cBcA|
BGFG BGFG dcBc|AFEF DFAc cBcA|GFGB AFAc BGBd|eceg fdfa a2g2|gece edBd dcAc|
BAGF G4 G,4:|

